Yaru++/apps/scalable/anjuta.svg

<svg enable-background="new" height="256" viewBox="0 0 256 256" width="256" xmlns="http://www.w3.org/2000/svg" xmlns:xlink="http://www.w3.org/1999/xlink">
  <filter id="filter11191" color-interpolation-filters="sRGB" height="1.024" width="1.024" x="-.01" y="-.01">
    <feGaussianBlur stdDeviation="1.12"/>
  </filter>
  <filter id="filter11210" color-interpolation-filters="sRGB" height="1.096" width="1.096" x="-.05" y="-.05">
    <feGaussianBlur stdDeviation="4.48"/>
  </filter>
  <linearGradient gradientTransform="matrix(4.2945267 0 0 4.2296962 4.407912 29.807892)" gradientUnits="userSpaceOnUse" x1="19.815" x2="28.057" y1="27.354" y2="27.354">
    <stop offset="0" stop-color="#fff" stop-opacity=".141176"/>
    <stop offset="1" stop-color="#fff" stop-opacity=".957143"/>
  </linearGradient>
  <circle cx="128.752" cy="127.248" filter="url(#filter11210)" opacity=".1" r="112"/>
  <circle cx="128.752" cy="125.248" filter="url(#filter11191)" opacity=".1" r="112"/>
  <circle cx="128.752" cy="123.248" opacity=".1" r="114"/>
  <rect fill="#d5d3cf" height="212.8" rx="104.533" width="209.067" x="24.18" y="19.55"/>
  <path d="m240.752 123.248a112 112 0 0 1 -111.99997 111.99999 112 112 0 0 1 -112.000031-111.99999 112 112 0 0 1 112.000031-112.000004 112 112 0 0 1 111.99997 112.000004z" fill="#f2eef7"/>
  <path d="m128.752 11.248007a112 112 0 0 0 -112 111.999993 112 112 0 0 0 .04102 1.16992 112 112 0 0 1 111.95898-111.169913 112 112 0 0 1 111.95898 110.830073 112 112 0 0 0 .041-.83008 112 112 0 0 0 -112-111.999993z" fill="#fff" opacity=".3"/>
  <path d="m36.630859 186.73047a112 112 0 0 0 4.388672 6.13867 112 112 0 0 0 7.388672 8.41016 112 112 0 0 0 8.191406 7.63086 112 112 0 0 0 8.91211 6.77539 112 112 0 0 0 9.544922 5.85156 112 112 0 0 0 10.080078 4.86914 112 112 0 0 0 10.517578 3.83984 112 112 0 0 0 10.847653 2.76953 112 112 0 0 0 11.06836 1.67188 112 112 0 0 0 2.73047.13672 99.593252 99.593252 0 0 0 8.19141-.99414 99.593252 99.593252 0 0 0 2.67773-.60156c-17.4771-10.48217-17.93832-42.65823-15.73437-63.77344 1.71935-4.25955 4.22089-5.6712 10.6289-6.01953 8.31591.24143 15.6305 2.64829 20.88282 6.99609 5.2523 4.34785 9.61394 8.26057 20.78906 13.69531 11.17513 5.43476 23.35757 6.72857 31.51172-1.30468.0167-.0148.02326-.04095.03906-.05665 4.1441-4.108 6.78276-10.37914 7.30078-17.30468.38279-5.11751-.25358-10.55073-2.98242-15.89649-3.23436-6.33599-22.90946-11.92758-31.51563-21.52343-9.72103-10.83885-14.46284-28.288581-23.46484-37.826176-3.51412-3.72325-11.8941-.677146-16.76367-2.935547-1.35898-4.231207-2.42447-9.037992-1.67578-15.976563.79342-7.353192 2.81459-15.88942 0-22.175781-1.54068-3.441136-5.98302-8.560206-10.08203-12.611328-3.39697-3.357266-6.55444-5.992227-7.6543-6.205078-.0866-.01678-.1605-.017356-.2207-.003906-.18056.04061-.23773.218219-.14649.560547.31901 1.196606.53678 3.201907.73438 5.285156.79538 8.385315.47932 22.965257-2.47461 39.072265-8.38135-3.847483-12.439554-2.234581-22.488284.648438-6.79641-8.07105-11.54456-23.619729-14.873047-31.896485-1.378198-3.427156-2.580577-5.889498-3.476563-5.609374-1.396414.436579-2.610997 4.095493-3.421875 8.740234-1.046305 5.993287-1.364099 13.800827.06836 20.279297.61646 2.788044 4.02616 9.45966 5.367187 12.068359 1.341028 2.608672 2.233376 4.999672 3.015625 6.195313-7.263807 7.717376-13.605313 9.382356-17.431641 18.259769-6.839553 15.86836-12.738421 61.51244-20.470703 82.82031z" fill="#73667f" fill-rule="evenodd"/>
  <path d="m90.042386 137.1138c.0754 7.44514-4.21094 11.29156 2.57165 19.08166 7.862864 9.03081 13.691424 5.40191 32.448264 4.87042 19.90309-.56665 25.7988 17.03489 49.56373 23.03276-21.67949-12.6856-17.80733-19.86447-37.15415-26.00658-18.74283-1.94916-33.2539-.68603-38.868114-6.42063-4.49748-4.59394-6.79477-10.05479-8.56138-14.55763z" fill-opacity=".338095" fill-rule="evenodd"/>
  <path d="m128.752 235.248a112 112 0 0 1 -112-112 112 112 0 0 1 .04102-1.16992 112 112 0 0 0 111.95898 111.16992 112 112 0 0 0 111.95898-110.83008 112 112 0 0 1 .041.83008 112 112 0 0 1 -112 112z" opacity=".2"/>
</svg>

<svg xmlns="http://www.w3.org/2000/svg" xmlns:xlink="http://www.w3.org/1999/xlink" style="enable-background:new" width="256" height="256" version="1.0" viewBox="0 0 256 256">
 <title id="title4162">
  Adwaita Icon Template
 </title>
 <defs>
  <linearGradient id="linearGradient950">
   <stop style="stop-color:#9a9996" id="stop946" offset="0"/>
   <stop style="stop-color:#77767b" id="stop948" offset="1"/>
  </linearGradient>
  <linearGradient id="linearGradient1001" x1="1660.857" x2="1662.99" y1="806.297" y2="812.882" gradientTransform="matrix(1.8293937,-0.81599442,0.81599442,1.8293937,-3645.9624,100.02949)" gradientUnits="userSpaceOnUse" xlink:href="#linearGradient950"/>
  <clipPath id="clipPath5154" clipPathUnits="userSpaceOnUse">
   <circle style="fill:url(#radialGradient5158)" cx="128" cy="924.362" r="109.647"/>
  </clipPath>
  <clipPath id="clipPath977" clipPathUnits="userSpaceOnUse">
   <circle style="fill:url(#radialGradient5158)" cx="128" cy="924.362" r="109.647"/>
  </clipPath>
  <clipPath id="clipPath4688" clipPathUnits="userSpaceOnUse">
   <path style="fill:url(#radialGradient4692);stroke:#a7003f;stroke-linecap:round;stroke-linejoin:round" d="m 106.42383,889.60156 c -2.2448,-0.0524 -4.09304,1.75264 -4.09375,3.99805 v 32.64453 32.64453 c -4e-5,3.07923 3.33305,5.004 6,3.46485 l 28.26953,-16.32227 28.27148,-16.32227 c 2.66559,-1.54001 2.66559,-5.38772 0,-6.92773 l -28.27148,-16.32227 -28.26953,-16.32226 c -0.58054,-0.3353 -1.23603,-0.51932 -1.90625,-0.53516 z"/>
  </clipPath>
  <clipPath id="clipPath4564" clipPathUnits="userSpaceOnUse">
   <circle style="fill:url(#radialGradient4568)" cx="128" cy="924.362" r="109.647"/>
  </clipPath>
  <clipPath id="clipPath6215" clipPathUnits="userSpaceOnUse">
   <path style="fill:url(#radialGradient6219)" d="m 105.17325,806.18572 c -3.06859,0.56361 -6.11393,1.24721 -9.129005,2.04923 -3.838255,1.06506 -7.62084,2.32142 -11.333578,3.76438 -3.712189,1.44307 -7.34989,3.07087 -10.899472,4.87732 -3.549153,1.80656 -7.005749,3.78947 -10.35684,5.94129 -3.351877,2.15253 -6.593991,4.47137 -9.714191,6.94783 -3.119992,2.47544 -6.114241,5.10535 -8.971529,7.87988 -0.367219,0.38909 -0.731819,0.78065 -1.093777,1.17464 2.60205,17.85956 16.832359,40.03752 30.863064,55.74236 -4.76734,8.84435 -7.265993,18.73329 -7.272057,28.78068 0.02104,2.87431 0.246096,5.7435 0.673482,8.58593 -20.257302,-9.18513 -43.077023,-26.53494 -52.798465,-47.36396 -0.440667,1.15171 -0.863474,2.31018 -1.268271,3.47498 -1.176789,3.80495 -2.162562,7.66637 -2.953625,11.56979 -0.79154,3.90311 -1.3874065,7.84335 -1.7853678,11.80598 -0.39733,3.96334 -0.5961891,7.94407 -0.5958321,11.92728 -4.394e-4,2.81936 0.098928,5.63785 0.2979155,8.45018 0.282275,3.97319 0.763088,7.92978 1.4406374,11.85493 0.625626,3.51826 1.408798,7.00668 2.347153,10.45473 16.778133,6.68355 43.114514,5.45001 63.748015,1.14301 6.818545,11.02763 16.987182,19.58379 29.018153,24.41667 -18.071844,12.93645 -44.490188,24.02095 -67.37308,22.03245 1.384097,1.665 2.813203,3.2921 4.285735,4.8794 2.774977,2.8571 5.691103,5.5737 8.737453,8.1395 3.046107,2.5658 6.218619,4.9777 9.505651,7.2266 3.287242,2.2488 6.684891,4.3319 10.180217,6.2413 3.495379,1.9096 7.084075,3.6433 10.752641,5.1944 3.66896,1.5509 7.413193,2.9174 11.218668,4.0942 1.438565,0.3959 2.884421,0.7648 4.336807,1.1066 14.138748,-11.1844 26.206378,-34.5828 32.780368,-54.56406 12.95816,-0.38251 25.45395,-4.90132 35.65955,-12.89544 2.15922,22.12638 -1.46693,50.5581 -14.64692,69.3832 3.06859,-0.5636 6.11393,-1.2473 9.129,-2.0493 3.83826,-1.0651 7.62084,-2.3214 11.33358,-3.7644 3.71219,-1.4431 7.34989,-3.0709 10.89947,-4.8773 3.54915,-1.8066 7.00575,-3.7895 10.35684,-5.9413 3.35188,-2.1525 6.59399,-4.4714 9.71419,-6.9478 3.11999,-2.4754 6.11424,-5.1054 8.97153,-7.8799 0.36722,-0.3891 0.73182,-0.7806 1.09378,-1.1746 -2.60204,-17.85957 -16.83236,-40.03755 -30.86307,-55.74238 4.76735,-8.84435 7.266,-18.7333 7.27207,-28.78069 -0.021,-2.8743 -0.24611,-5.74349 -0.6735,-8.58592 20.25731,9.18513 43.07704,26.53494 52.79848,47.36396 0.44067,-1.15171 0.86347,-2.31018 1.26827,-3.47499 1.17679,-3.80495 2.16256,-7.66636 2.95362,-11.56978 0.79154,-3.90311 1.38741,-7.84335 1.78537,-11.80598 0.39733,-3.96334 0.59619,-7.94408 0.59583,-11.92729 4.4e-4,-2.81936 -0.0989,-5.63784 -0.29791,-8.45017 -0.28228,-3.97319 -0.76309,-7.92978 -1.44064,-11.85493 -0.62776,-3.53416 -1.41449,-7.03823 -2.35779,-10.50154 -20.56165,-7.32804 -45.89823,-4.79548 -63.74906,-1.11372 -6.81835,-11.01918 -16.98234,-19.56874 -29.00647,-24.39915 18.07184,-12.93645 44.49019,-24.02091 67.37307,-22.03241 -1.38409,-1.66502 -2.8132,-3.2921 -4.28573,-4.87944 -2.77498,-2.85712 -5.6911,-5.57368 -8.73745,-8.13949 -3.04611,-2.56581 -6.21862,-4.97769 -9.50565,-7.22659 -3.28724,-2.24885 -6.68489,-4.3319 -10.18022,-6.24135 -3.49538,-1.90963 -7.08407,-3.64325 -10.75264,-5.19438 -3.66896,-1.55092 -7.41319,-2.91736 -11.21867,-4.09421 -1.42662,-0.39262 -2.86041,-0.75869 -4.30063,-1.09804 -14.14688,11.18369 -26.2293,34.57475 -32.8107,54.55552 -12.96018,0.38127 -25.4582,4.90015 -35.665394,12.89544 -2.15922,-22.12637 1.466931,-50.55807 14.646924,-69.38315 z"/>
  </clipPath>
  <linearGradient id="linearGradient954">
   <stop id="stop950" offset="0" style="stop-color:#faf8f6"/>
   <stop id="stop952" offset="1" style="stop-color:#f1f0e9"/>
  </linearGradient>
  <filter style="color-interpolation-filters:sRGB" id="filter11191" width="1.024" height="1.024" x="-.01" y="-.01">
   <feGaussianBlur id="feGaussianBlur11193" stdDeviation="1.12"/>
  </filter>
  <filter style="color-interpolation-filters:sRGB" id="filter11210" width="1.096" height="1.096" x="-.05" y="-.05">
   <feGaussianBlur id="feGaussianBlur11212" stdDeviation="4.48"/>
  </filter>
  <linearGradient id="linearGradient3177" x1="19.815" x2="28.057" y1="27.354" y2="27.354" gradientTransform="matrix(4.2945267,0,0,4.2296962,4.407912,29.807892)" gradientUnits="userSpaceOnUse" xlink:href="#linearGradient1672"/>
  <linearGradient id="linearGradient1672">
   <stop id="stop1668" offset="0" style="stop-color:#ffffff;stop-opacity:0.14117648"/>
   <stop id="stop1670" offset="1" style="stop-color:#ffffff;stop-opacity:0.95714283"/>
  </linearGradient>
 </defs>
 <circle style="opacity:0.1;filter:url(#filter11210)" cx="128.752" cy="127.248" r="112"/>
 <circle style="opacity:0.1;filter:url(#filter11191)" cx="128.752" cy="125.248" r="112"/>
 <circle style="opacity:0.1" cx="128.752" cy="123.248" r="114"/>
 <rect style="fill:#d5d3cf" width="209.067" height="212.8" x="24.18" y="19.55" rx="104.533" ry="104.533"/>
 <path style="fill:#f2eef7" d="M 240.752,123.248 A 112,112 0 0 1 128.75203,235.24799 112,112 0 0 1 16.751999,123.248 112,112 0 0 1 128.75203,11.247996 112,112 0 0 1 240.752,123.248 Z"/>
 <path style="opacity:0.3;fill:#ffffff" d="M 128.752,11.248007 A 112,112 0 0 0 16.752,123.248 112,112 0 0 0 16.79302,124.41792 112,112 0 0 1 128.752,13.248007 112,112 0 0 1 240.71098,124.07808 a 112,112 0 0 0 0.041,-0.83008 112,112 0 0 0 -112,-111.999993 z"/>
 <path style="fill:#73667f;fill-rule:evenodd" d="M 36.630859 186.73047 A 112 112 0 0 0 41.019531 192.86914 A 112 112 0 0 0 48.408203 201.2793 A 112 112 0 0 0 56.599609 208.91016 A 112 112 0 0 0 65.511719 215.68555 A 112 112 0 0 0 75.056641 221.53711 A 112 112 0 0 0 85.136719 226.40625 A 112 112 0 0 0 95.654297 230.24609 A 112 112 0 0 0 106.50195 233.01562 A 112 112 0 0 0 117.57031 234.6875 A 112 112 0 0 0 120.30078 234.82422 A 99.593252 99.593252 0 0 0 128.49219 233.83008 A 99.593252 99.593252 0 0 0 131.16992 233.22852 C 113.69282 222.74635 113.2316 190.57029 115.43555 169.45508 C 117.1549 165.19553 119.65644 163.78388 126.06445 163.43555 C 134.38036 163.67698 141.69495 166.08384 146.94727 170.43164 C 152.19957 174.77949 156.56121 178.69221 167.73633 184.12695 C 178.91146 189.56171 191.0939 190.85552 199.24805 182.82227 C 199.26475 182.80747 199.27131 182.78132 199.28711 182.76562 C 203.43121 178.65762 206.06987 172.38648 206.58789 165.46094 C 206.97068 160.34343 206.33431 154.91021 203.60547 149.56445 C 200.37111 143.22846 180.69601 137.63687 172.08984 128.04102 C 162.36881 117.20217 157.627 99.752439 148.625 90.214844 C 145.11088 86.491594 136.7309 89.537698 131.86133 87.279297 C 130.50235 83.04809 129.43686 78.241305 130.18555 71.302734 C 130.97897 63.949542 133.00014 55.413314 130.18555 49.126953 C 128.64487 45.685817 124.20253 40.566747 120.10352 36.515625 C 116.70655 33.158359 113.54908 30.523398 112.44922 30.310547 C 112.36262 30.293767 112.28872 30.293191 112.22852 30.306641 C 112.04796 30.347251 111.99079 30.52486 112.08203 30.867188 C 112.40104 32.063794 112.61881 34.069095 112.81641 36.152344 C 113.61179 44.537659 113.29573 59.117601 110.3418 75.224609 C 101.96045 71.377126 97.902246 72.990028 87.853516 75.873047 C 81.057106 67.801997 76.308956 52.253318 72.980469 43.976562 C 71.602271 40.549406 70.399892 38.087064 69.503906 38.367188 C 68.107492 38.803767 66.892909 42.462681 66.082031 47.107422 C 65.035726 53.100709 64.717932 60.908249 66.150391 67.386719 C 66.766851 70.174763 70.176551 76.846379 71.517578 79.455078 C 72.858606 82.06375 73.750954 84.45475 74.533203 85.650391 C 67.269396 93.367767 60.92789 95.032747 57.101562 103.91016 C 50.262009 119.77852 44.363141 165.4226 36.630859 186.73047 z"/>
 <path d="m 90.042386,137.1138 c 0.0754,7.44514 -4.21094,11.29156 2.57165,19.08166 7.862864,9.03081 13.691424,5.40191 32.448264,4.87042 19.90309,-0.56665 25.7988,17.03489 49.56373,23.03276 -21.67949,-12.6856 -17.80733,-19.86447 -37.15415,-26.00658 -18.74283,-1.94916 -33.2539,-0.68603 -38.868114,-6.42063 -4.49748,-4.59394 -6.79477,-10.05479 -8.56138,-14.55763 z" style="fill-opacity:0.33809527;fill-rule:evenodd;stroke:url(#linearGradient3177);stroke-width:0"/>
 <path style="fill:none;stroke:#060303;stroke-width:1.875;stroke-linecap:round;stroke-linejoin:round"/>
 <path style="fill:none;stroke:#060303;stroke-width:1.875;stroke-linecap:round;stroke-linejoin:round"/>
 <path style="opacity:0.2" d="m 128.752,235.248 a 112,112 0 0 1 -112,-112 112,112 0 0 1 0.04102,-1.16992 A 112,112 0 0 0 128.752,233.248 112,112 0 0 0 240.71098,122.41792 a 112,112 0 0 1 0.041,0.83008 112,112 0 0 1 -112,112 z"/>
</svg>
